img/cards/default/bluediamo7.svg

<?xml version="1.0" encoding="UTF-8"?>
<svg width="100mm" height="140mm" version="1.1" viewBox="0 0 100 140" xmlns="http://www.w3.org/2000/svg">
 <path transform="matrix(1.4157,0,0,1.4658,-3.0876,-3.2921)" d="M 37.5,88.005 C 30.9577,75.246 21.049,60.633 11.995,50 21.0491,39.367 30.958,24.754 37.5,11.995 44.0423,24.754 53.951,39.367 63.005,50 53.9509,60.633 44.042,75.246 37.5,88.005 Z M 37.499998,50 37.5,75.951 37.500002,50 37.5,24.049 Z" fill="#1020ff" fill-rule="evenodd" stroke="#1020ff" stroke-linecap="round" stroke-linejoin="round" stroke-width="1.3884" style="paint-order:markers fill stroke"/>
 <g fill="#fff" aria-label="7">
  <path d="m59.302 51.982v2.5391l-12.231 33.008h-4.541l12.231-31.836h-15.845v-3.7109z"/>
 </g>
</svg>

<svg xmlns="http://www.w3.org/2000/svg" id="deck" width="100mm" height="140mm" version="1.1" viewBox="0 0 100 140">
 <style>@import url('https://fonts.googleapis.com/css2?family=Roboto+Condensed&amp;display=swap');</style>
 <g>
  <path transform="matrix(1.4157 0 0 1.4658 -3.0876 -3.2921)" d="m37.5 88.005c-6.5423-12.759-16.451-27.372-25.505-38.005 9.0541-10.633 18.963-25.246 25.505-38.005 6.5423 12.759 16.451 27.372 25.505 38.005-9.0541 10.633-18.963 25.246-25.505 38.005zm-2e-6 -38.005 2e-6 25.951 2e-6 -25.951-2e-6 -25.951z" fill="#1020ff" fill-rule="evenodd" stroke="#1020ff" stroke-linecap="round" stroke-linejoin="round" stroke-width="1.3884" style="paint-order:markers fill stroke"/>
  <text x="49.157642" y="87.529297" fill="#ffffff" font-family="'Roboto Condensed'" font-size="50px" letter-spacing="0px" text-align="center" text-anchor="middle" xml:space="preserve"><tspan x="49.157642" y="87.529297">7</tspan></text>
 </g>
</svg>
